X: 2
T: A Tune For The Girls
R: reel
M: 4/4
L: 1/8
K: Amix
|:CA,CD E3D|CEGF EDCA,|DA,DF G3D|GDAD FGED|
CA,CD E3D|CEGF EDCA,|DFAF G3D|1 GFED CA,A,G,:|2 GFED CA,A,2||
|:cABG A3G|EA (3AAA EAAd|cABG A3G|ED (3DDD EDCD|
[1 cABG A3c|AGED CA,B,C|DFAF G3D|GFED CA,A,2:|
[2 EAAA c3B|BA G3 EED|CEAF G3D|GFED CA,A,G,||
|:A,EAd c2A,E|AcB2 G,B,DB,|A,EAd cAB2|G,B,DG BGDB,|
A,EAd c2A,E|AcB2 G,B,DB,|A,EAd cAB2|1 G,B,DG BGDB,:|2 G,B,DG E2ED||

composer: Liz Carroll
